X:29
T:T020A- Johnny M.cGill
S:McGlashan's Scots Measures, c 1778
Q:1/4=120
L:1/8
M:6/8
K:Dm
g|cAA ~AGA|cAA A2f|cAA ~AGA|FDDD2f|\
cAA AGA|cAA AGF|G3 ~AGA|FDD D2::c|f3~g3{f/g/}|\
afd cAF|f3 ~g3{f/g/}|afd d2 f/g/|afa geg|\
fdff2d|cAA ~AGA|FDD D2:|]

